packages/icons/raw/imported/MediaTunerAlternative.svg

<svg width="32" height="32" viewBox="0 0 32 32" fill="none" xmlns="http://www.w3.org/2000/svg">
<path d="M13.8077 22.6154C13.8077 21.787 14.4793 21.1154 15.3077 21.1154H16.6923C17.5207 21.1154 18.1923 21.787 18.1923 22.6154V24C18.1923 24.8284 17.5207 25.5 16.6923 25.5H15.3077C14.4793 25.5 13.8077 24.8284 13.8077 24V22.6154Z" stroke="black" stroke-linecap="round"/>
<path d="M13.8077 15.3077C13.8077 14.4793 14.4793 13.8077 15.3077 13.8077H16.6923C17.5207 13.8077 18.1923 14.4793 18.1923 15.3077V16.6923C18.1923 17.5207 17.5207 18.1923 16.6923 18.1923H15.3077C14.4793 18.1923 13.8077 17.5207 13.8077 16.6923V15.3077Z" stroke="black" stroke-linecap="round"/>
<path d="M6.5 22.6154C6.5 21.787 7.17157 21.1154 8 21.1154H9.38461C10.213 21.1154 10.8846 21.787 10.8846 22.6154V24C10.8846 24.8284 10.213 25.5 9.38462 25.5H8C7.17157 25.5 6.5 24.8284 6.5 24V22.6154Z" stroke="black" stroke-linecap="round"/>
<path d="M21.1154 22.6154C21.1154 21.787 21.787 21.1154 22.6154 21.1154H24C24.8284 21.1154 25.5 21.787 25.5 22.6154V24C25.5 24.8284 24.8284 25.5 24 25.5H22.6154C21.787 25.5 21.1154 24.8284 21.1154 24V22.6154Z" stroke="black" stroke-linecap="round"/>
<path d="M21.1154 15.3077C21.1154 14.4793 21.787 13.8077 22.6154 13.8077H24C24.8284 13.8077 25.5 14.4793 25.5 15.3077V16.6923C25.5 17.5207 24.8284 18.1923 24 18.1923H22.6154C21.787 18.1923 21.1154 17.5207 21.1154 16.6923V15.3077Z" stroke="black" stroke-linecap="round"/>
<path d="M13.8077 8C13.8077 7.17157 14.4793 6.5 15.3077 6.5H16.6923C17.5207 6.5 18.1923 7.17157 18.1923 8V9.38461C18.1923 10.213 17.5207 10.8846 16.6923 10.8846H15.3077C14.4793 10.8846 13.8077 10.213 13.8077 9.38462V8Z" stroke="black" stroke-linecap="round"/>
</svg>

<svg width="32" height="32" fill="none" xmlns="http://www.w3.org/2000/svg"><path d="M13.808 22.615a1.5 1.5 0 0 1 1.5-1.5h1.384a1.5 1.5 0 0 1 1.5 1.5V24a1.5 1.5 0 0 1-1.5 1.5h-1.384a1.5 1.5 0 0 1-1.5-1.5v-1.385ZM13.808 15.308a1.5 1.5 0 0 1 1.5-1.5h1.384a1.5 1.5 0 0 1 1.5 1.5v1.384a1.5 1.5 0 0 1-1.5 1.5h-1.384a1.5 1.5 0 0 1-1.5-1.5v-1.384ZM6.5 22.615a1.5 1.5 0 0 1 1.5-1.5h1.385a1.5 1.5 0 0 1 1.5 1.5V24a1.5 1.5 0 0 1-1.5 1.5H8A1.5 1.5 0 0 1 6.5 24v-1.385ZM21.115 22.615a1.5 1.5 0 0 1 1.5-1.5H24a1.5 1.5 0 0 1 1.5 1.5V24a1.5 1.5 0 0 1-1.5 1.5h-1.385a1.5 1.5 0 0 1-1.5-1.5v-1.385ZM21.115 15.308a1.5 1.5 0 0 1 1.5-1.5H24a1.5 1.5 0 0 1 1.5 1.5v1.384a1.5 1.5 0 0 1-1.5 1.5h-1.385a1.5 1.5 0 0 1-1.5-1.5v-1.384ZM13.808 8a1.5 1.5 0 0 1 1.5-1.5h1.384a1.5 1.5 0 0 1 1.5 1.5v1.385a1.5 1.5 0 0 1-1.5 1.5h-1.384a1.5 1.5 0 0 1-1.5-1.5V8Z" stroke="#000" stroke-linecap="round"/></svg>
